X:1
T:Title
%%score { ( 1 3 ) | ( 2 4 ) }
L:1/8
M:4/4
K:G
V:1 treble nm="Grand Piano"
V:3 treble 
V:2 bass 
V:4 bass 
V:1
 z4 z2[Q:1/4=100] DD | G2 GG GGBB | d2 d2 d2 DD | G2 GG B2 B2 | [FA]6 D2 | G2 GG G2 BB | %6
[M:3/4] d2 d2 d2 |[M:1/4] D2 |[M:4/4] G2 GG [GB]2 [FA]2 |[M:2/4] [B,DG]4 | d3 B | %11
[M:4/4] d2 d>d B B2 A | G2 G>G E D2 D | G2 G>G [^CEG][CEG][CGB][CGB] | [DFA]4 [Fd]4 | d2 d2 B2 B2 | %16
 [B,DG]2 [B,DG][B,DG] [CE] D2 [G,B,D] | [G,DG]2 [G,DG]>[G,DG] [DB][GB] [CFA]2 |[M:3/4] [B,DG]6 |] %19
V:2
 z4 z2 [G,B,][G,B,] | [G,B,D]2 [G,B,D][G,B,D][K:treble] [G,B,D][G,B,D][G,DG][G,DG] | %2
 [G,B,G]2 [A,CF]2 [B,DG]2 [A,C]2 | [G,B,D]2 [G,B,D][G,B,D] [G,DG]2 [G,DG]2 | [D,D]6 [F,C]2 | %5
 [G,B,D]2 [G,B,D][G,B,D][K:treble] [G,B,D]2 [G,DG][G,DG] |[M:3/4] [G,B,G]2 [A,CF]2 [B,DG]2 | %7
[M:1/4][K:bass] [A,C]2 |[M:4/4] [G,B,D]2 [G,B,D][G,B,D] [D,D]2 [D,C]2 |[M:2/4] [G,,G,]4 | %10
 [G,B,G]3 [G,DG] |[M:4/4] [G,B,G]2 [G,B,G]>[G,B,G] [G,DG] [G,DG]2[K:bass] [G,CD] | %12
 [G,B,D]2 [G,B,D]>[G,B,D] [G,C] [G,B,]2 [G,B,] | [E,B,E]2 [E,B,E]>[E,B,E] A,,A,,A,,A,, | %14
 D,4 [D,A,]4 | [G,B,G]2 [G,B,G]2 [G,DG]2 [G,DG]2 | G,,2 G,,G,, z B,2 G,, | %17
 B,,2 B,,>B,, [D,G,][D,G,] D,2 |[M:3/4] G,,6 |] %19
V:3
 x8 | x8 | x8 | x8 | x8 | x8 |[M:3/4] x6 |[M:1/4] x2 |[M:4/4] x8 |[M:2/4] x4 | x4 |[M:4/4] x8 | %12
 x8 | x8 | x8 | x8 | z4 G,4 | x8 |[M:3/4] x6 |] %19
V:4
 x8 | x4[K:treble] x4 | x8 | x8 | x8 | x4[K:treble] x4 |[M:3/4] x6 |[M:1/4][K:bass] x2 | %8
[M:4/4] x8 |[M:2/4] x4 | x4 |[M:4/4] x7[K:bass] x | x8 | x8 | x8 | x8 | z4 G,,4 | x8 |[M:3/4] x6 |] %19

